X: 15784
T: Good Ship Sirius, The
R: jig
M: 6/8
K: Gmajor
DGG G2B|AGA BGE|DGG G2B|AGF G2E|
DGG G2B|AGA BGE|DGG G2B|AGF G2e||
|:g3 edB|edB edB|g2g age|edB AGE|
DGG G2B|AGA BGE|DGG G2B|1 AGF G2e:|2 AGF G3||

